!!! OTL: Literature132
!!! Chapter: 5
!!! Section: IV
!!! Page: 375
!!! Mode: 
!!! Encoder: DJB
**kern
*staff1
*I"Piano
=1-
*clefF4
*k[b-e-]
*B-:
*M5/8
8D\L
8E-\
8F\J
8G\L
8A-\J
=2
*M2/4
4B-\
4F\
=3
4G\
4B-\
=4
8A\L
8G\J
[4E-\
=5
8E-\L]
8F\J
8G\L
8B-\J
=6
8A\L
8G\J
8E-\L
8F\J
=7
8G\L
8A\J
8B-\L
8c\J
=8
8d\L
16c\L
16c\JJ
8Bn\L
8A\J
=9
*M5/8
8G\L
8F\
8En\J
8D/L
8C/J
=10
8BB-/
2r
==
*-
